!!!!SEGMENT: mpm338-ChineseLullaby_M.krn
!!!COM: Robert Hood Bowers
!!!OTL1: Chinese Lullaby
!!!OTL2: From "East Is West" As sung by Ming Toy
!!!OPR:Motion Picture Moods for Pianists and Organists 
!!!YOY:1924
!!!ONB: National
**kern	**dynam
*>[A,B,B1,B,B2]	*>[A,B,B1,B,B2]
*clefG2	*
*k[]	*
*a:	*
*M2/4	*
*>A	*>A
=1	=1
!LO:TX:a:B:t=Moderato con moto	!
2rcc	.
=2	=2
2rcc	.
=3	=3
2rcc	.
=4	=4
2rcc	.
=5||	=5||
8a	mf
8a	.
8g	.
8g	.
=6	=6
8a	.
8a	.
8cc	.
8r	.
=7	=7
8a	.
8a	.
8g	.
8g	.
=8	=8
8e	.
8e	.
8g	.
8r	.
=9	=9
8a	.
8a	.
8g	.
8g	.
=10	=10
8a	.
8a	.
8cc	.
8r	.
=11	=11
8dd	.
8dd	.
8cc	.
8dd	.
=12	=12
[4ee	.
8ee]	.
8r	.
=13	=13
8a	.
8a	.
8g	.
8g	.
=14	=14
8a	.
8a	.
8cc	.
8r	.
=15	=15
8a	.
8a	.
8g	.
8g	.
=16	=16
8e	.
8e	.
8g	.
8r	.
=17	=17
8a	.
8a	.
8g	.
8g	.
=18	=18
8a	.
8a	.
8cc	.
8r	.
=19	=19
8a	.
8g	>
8g	.
8e	]]
=20	=20
[2d	p
=21	=21
2d_	.
=22	=22
8d]	.
8r	.
4r	.
=23	=23
2rcc	.
=24	=24
2rcc	.
=25	=25
2rcc	.
=26||	=26||
*M3/4	*
2.ra	.
=27	=27
4r	.
4r	.
4e	mp
*>B	*>B
=28!|:	=28!|:
2a	.
8b	.
8g	.
=29	=29
2e	.
4e	.
=30	=30
2a	.
8b	.
8g	p
=31	=31
2.e	.
=32	=32
2g	.
8e	.
8g	.
=33	=33
2e	.
4d	.
=34	=34
[2.e	.
=35	=35
4e]	.
4r	.
8e	.
8e	.
=36	=36
2a	.
8b	.
8g	.
=37	=37
2e	.
8e	.
8e	.
=38	=38
2a	.
8b	.
8g	.
=39	=39
2e;	.
8d	.
8e	.
=40	=40
4g	.
2g	.
=41	=41
4g	>
4d#X	.
4g	]]
*>B1	*>B1
=42	=42
[2.g	.
=43	=43
4g]	.
4r	.
4e	.
*>B2	*>B2
=44:|!	=44:|!
[2.g	>
=45	=45
4g;]	.
4r	]
4r	.
==	==
*-	*-
!!!ENC: Yukiko Yoden
!!!END: 2022/03/21